!!!COM: Palestrina, Giovanni Perluigi da
!!!OPR: Missa Ave Maria (1594)
!!!OTL: Agnus II
**kern	**kern	**kern	**kern	**kern
*Ibass	*Itenor	*Itenor	*Icalto	*Icant
!Bassus	!Tenor 2	!Tenor 1	!Altus	!Cantus
*clefF4	*clefGv2	*clefGv2	*clefG2	*clefG2
*k[]	*k[]	*k[]	*k[]	*k[]
*A:aeo	*A:aeo	*A:aeo	*A:aeo	*A:aeo
*M4/2	*M4/2	*M4/2	*M4/2	*M4/2
=1	=1	=1	=1	=1
0r	0r	0c	0r	0r
=2	=2	=2	=2	=2
0r	0r	1G	0r	1r
.	.	1A	.	[1cc
=3	=3	=3	=3	=3
0r	0r	4A	0r	1cc]
.	.	4B	.	.
.	.	4c	.	.
.	.	4d	.	.
.	.	1e	.	1g
=4	=4	=4	=4	=4
0r	0r	1.d	0f	1a
.	.	.	.	4a
.	.	.	.	4b
.	.	4c	.	4cc
.	.	4B	.	4dd
=5	=5	=5	=5	=5
0r	0r	1A	1c	1ee
.	.	2r	1d	2.ff
.	.	4d	.	.
.	.	4e	.	4ee
=6	=6	=6	=6	=6
0r	0r	4f	4d	2dd
.	.	4g	4e	.
.	.	2a	4f	2cc
.	.	.	4g	.
.	.	2f	2a	1dd
.	.	[2g	2b	.
=7	=7	=7	=7	=7
0r	0c	4g]	1cc	2ee
.	.	4f	.	.
.	.	4e	.	2.gg
.	.	4d	.	.
.	.	2.e	2g	.
.	.	.	.	4ff
.	.	.	[2cc	2ee
.	.	4f	.	.
=8	=8	=8	=8	=8
1r	1G	1g	2cc]	1dd
.	.	.	2b	.
[1F	1A	[1c	2a	[1cc
.	.	.	2f	.
=9	=9	=9	=9	=9
1F]	4A	0c]	1a	2cc]
.	4B	.	.	.
.	4c	.	.	4a
.	4d	.	.	4b
1C	1e	.	1g	4cc
.	.	.	.	4dd
.	.	.	.	2ee
=10	=10	=10	=10	=10
1D	0f	1A	4f	2dd
.	.	.	4e	.
.	.	.	4d	2.ff
.	.	.	4c	.
4D	.	[1a	2d	.
4E	.	.	.	4ee
4F	.	.	2A	[2dd
4G	.	.	.	.
=11	=11	=11	=11	=11
1A	1e	1a]	2r	2dd]
.	.	.	2a	2cc#
[1B-	1r	[1d	2g	1dd
.	.	.	2f	.
=12	=12	=12	=12	=12
1B-]	0r	1d]	1g	2r
.	.	.	.	1dd
1A	.	2e	2.a	.
.	.	2a	.	4cc
.	.	.	8g	4b
.	.	.	8f	.
=13	=13	=13	=13	=13
0r	1r	2g	2e	2cc
.	.	2f	2d	2dd
.	2r	1g	1e	2.b
.	2e	.	.	.
.	.	.	.	4cc
=14	=14	=14	=14	=14
0r	2d	0a	2f	2dd
.	2c	.	2e	2.ee
.	1d	.	4f	.
.	.	.	4g	4dd
.	.	.	4a	[2dd
.	.	.	4f	.
=15	=15	=15	=15	=15
2r	1e	1r	2g	2dd]
2A	.	.	2a	2cc
2G	1r	2r	2b-	1dd
2F	.	2a	2a	.
=16	=16	=16	=16	=16
1G	0r	1g	1b-	2r
.	.	.	.	2dd
1A	.	[1e	2a	2dd
.	.	.	2a	2cc
=17	=17	=17	=17	=17
0r	2r	1e]	2a	2.b
.	2e	.	2g	.
.	.	.	.	4cc
.	2d	[1a	2f	2dd
.	2c	.	2e	[2ee
=18	=18	=18	=18	=18
1r	1d	0a]	1f	2ee]
.	.	.	.	2dd
2r	2A	.	2.e	1ee
2A	2c	.	.	.
.	.	.	4f	.
=19	=19	=19	=19	=19
2G	2B	0d	2g	2r
2F	2A	.	1a	2dd
1G	1B	.	.	4dd
.	.	.	.	4cc
.	.	.	2g	4dd
.	.	.	.	4ee
=20	=20	=20	=20	=20
2D	2.A	2r	1a	4ff
.	.	.	.	4ee
2F	.	2a	.	4cc
.	4B	.	.	4dd
2E	2c	2g	1r	2ee
2D	[2d	2f	.	2a
=21	=21	=21	=21	=21
1E	2d]	1g	1r	1ee
.	2c#	.	.	.
2.D	1d	2.f	2r	1a
.	.	.	[2a	.
4E	.	4e	.	.
=22	=22	=22	=22	=22
2F	0r	4d	2a]	0dd
.	.	4c	.	.
1G	.	4B-	2g	.
.	.	4A	.	.
.	.	2G	2b-	.
2F#	.	2A	2a	.
=23	=23	=23	=23	=23
1G	0r	1B-	4g	2r
.	.	.	4f	.
.	.	.	4e	1dd
.	.	.	4d	.
1r	.	1A	2e	.
.	.	.	[2a	2cc
=24	=24	=24	=24	=24
0r	2r	0r	4a]	2ff
.	.	.	4b	.
.	2e	.	2cc	2ee
.	2g	.	2b	4dd
.	.	.	.	4cc
.	2f	.	[2a	4b
.	.	.	.	4a
=25	=25	=25	=25	=25
1r	1e	0r	2a]	1b
.	.	.	2g#	.
2r	1r	.	1a	2cc
2A	.	.	.	[2ee
=26	=26	=26	=26	=26
2c	0r	2r	1g	2ee]
2B-	.	1d	.	2dd
1A	.	.	2r	2ff
.	.	2c	[2a	2ee
=27	=27	=27	=27	=27
0r	1r	2f	2a]	1cc
.	.	2e	2g	.
.	2r	4d	4f	1dd
.	.	4c	4e	.
.	[2a	4B-	4d	.
.	.	4A	4c	.
=28	=28	=28	=28	=28
0r	2a]	1B-	2d	2r
.	2g	.	2d	1dd
.	2f	1A	[1a	.
.	2e	.	.	2cc
=29	=29	=29	=29	=29
2r	1d	2r	1a]	1ff
1d	.	1a	.	.
.	1e	.	1A	1ee
2c	.	2e	.	.
=30	=30	=30	=30	=30
2B-	0r	2f	2r	2dd
2A	.	2f	2a	4cc
.	.	.	.	4dd
1G	.	2.g	1b-	4ee
.	.	.	.	4dd
.	.	.	.	[2dd
.	.	4f	.	.
=31	=31	=31	=31	=31
1A	1r	1e	0a	2dd]
.	.	.	.	4cc#
.	.	.	.	4b
1r	1e	1A	.	1cc#
=32	=32	=32	=32	=32
0r	1f	1d	1a	2dd
.	.	.	.	1a
.	[1e	1r	2cc	.
.	.	.	2b	2g
=33	=33	=33	=33	=33
1A	1e]	1r	1a	4cc
.	.	.	.	4b
.	.	.	.	4a
.	.	.	.	4g
1B-	1d	2r	1r	2f
.	.	[2d	.	2g
=34	=34	=34	=34	=34
0A	2e	2d]	2r	1a
.	4A	2c	1a	.
.	4B	.	.	.
.	4c	2f	.	1a
.	4d	.	.	.
.	4e	[2e	2cc	.
.	4f	.	.	.
=35	=35	=35	=35	=35
1G	1g	4e]	1b-	2r
.	.	4d	.	.
.	.	2d	.	2dd
2A	2e	2r	2a	2cc
4D	[2a	[2d	4f	[2ff
4E	.	.	4g	.
=36	=36	=36	=36	=36
4F	2a]	2d]	4a	2ff]
4G	.	.	4b	.
4A	2a	2c	1cc	1ee
4B	.	.	.	.
1c	4g	[1e	.	.
.	4f	.	.	.
.	4e	.	2g	[2cc
.	4d	.	.	.
=37	=37	=37	=37	=37
2A	2c	2e]	1a	4cc]
.	.	.	.	4b
1d	2d	2f	.	1a
.	1B	1d	1b	.
2d	.	.	.	2g#
=38	=38	=38	=38	=38
4c	1A	2e	1cc	1a
4B	.	.	.	.
4A	.	2.f	.	.
4G	.	.	.	.
2F	1r	.	2a	2r
.	.	4e	.	.
2G	.	[2d	2b-	2dd
=39	=39	=39	=39	=39
1E	1G	2d]	1g	1ee
.	.	2c#	.	.
1D	1A	1d	2r	1ff#
.	.	.	[2d	.
=40	=40	=40	=40	=40
1r	1B	2G	2d]	1gg
.	.	1g	2G	.
1C	1c	.	1g	1ee
.	.	2e	.	.
=41	=41	=41	=41	=41
1D	1A	2.d	2f	1ff
.	.	.	1a	.
.	.	4c	.	.
1E	1e	1B	.	1ee
.	.	.	2g#	.
=42	=42	=42	=42	=42
1F	1c	[0A	[0a	2r
.	.	.	.	4a
.	.	.	.	8b
.	.	.	.	8cc
1D	1f	.	.	1dd
=43	=43	=43	=43	=43
0A	0e	0A]	0a]	0cc#
==	==	==	==	==
*-	*-	*-	*-	*-
!!!CDT: 1525/^1526/-1594/2/2
!!!OCY: Italia
!!!AGN: Mass (Paraphrase)
!!!AST: renaissance, vocal
!!!ASW: Prayer
!!!PWK: Masses, Book 7
!!!RNB: Cadence finals: D
!!!YOR: Le Opere Complete, v. 23, p. 1
!!!YOO: Rome, Italy: Fratelli Scalera
!!!END: 1992//
!!!EED: John Miller
!!!YEC: Copyright 2000, John Miller
!!!YEN: United States of America
!!!YEM: Rights to all derivative electronic formats reserved.
!!!YEM: Refer to licensing agreement for further details.
!!!YEM: This file must be accompanied by the licensing agreement.
!!!YEM: A copy of the licensing agreement may be found at http://www.music-cog.ohio-state.edu/HumdrumDatabases/Palestrina/license.txt
!!!EMD: converted to Humdrum by Bret Aarden
